X: 49
T:Waters of Tyne
% Nottingham Music Database
S:NPTB
M:3/4
L:1/4
K:D
F/2G/2|"D"AFF|"A"AFE|"G"DD3/2D/2|"D"D2E/2F/2|"G"GGF|"A"EFA|"G"BB3/2B/2|
"A"A2F/2E/2|"D"Dd3/2d/2|"D"def|"D"dA3/2B/2|"G"B2c/2d/2|"D"AFA|"A"A2F/2E/2|\
"G"DD3/2D/2|"D"D2:|<end>
<start>
